X:5
T:Finnskogspols
Z:2006 Brian Wilson <Brian.Wilson@alumni.brown.edu>
Z:Learned from Amy Parker
M:3/4
L:1/8
K:D
|: "D"F2 E2 D2 | "D"DF Ad f2 | "A"fg "A"ef "D"d2 | "A"fe "A"cd ec
| "D"df "A"ec A2
|  "D"F2 E2 D2 | "D"DF Ad f2 | "A"fg "A"ef "D"d2 | "A"fe "A"cd ec | "D"d2 d4 :|
|: "A"ce ce g2 | "D"df df a2 | "A"ce ce g2 | "D"df df a2
| "G"gf ga b2 | "D"fe df a2 | "A"ge cA Bc | "D"d2 d4 :|
